icons/id-badge-16.svg

<svg width="16" height="16" viewBox="0 0 16 16" fill="none" xmlns="http://www.w3.org/2000/svg">
<path d="M3 7.5C3 7.22386 3.22386 7 3.5 7H5.5C5.77614 7 6 7.22386 6 7.5V10.5C6 10.7761 5.77614 11 5.5 11H3.5C3.22386 11 3 10.7761 3 10.5V7.5Z" fill="black"/>
<path d="M13 7.75C13 8.16421 12.6642 8.5 12.25 8.5H7.75C7.33579 8.5 7 8.16421 7 7.75C7 7.33579 7.33579 7 7.75 7L12.25 7C12.6642 7 13 7.33579 13 7.75Z" fill="black"/>
<path d="M10.25 11C10.6642 11 11 10.6642 11 10.25C11 9.83579 10.6642 9.5 10.25 9.5L7.75 9.5C7.33579 9.5 7 9.83579 7 10.25C7 10.6642 7.33579 11 7.75 11H10.25Z" fill="black"/>
<path fill-rule="evenodd" clip-rule="evenodd" d="M7.25 0C6.2835 0 5.5 0.783502 5.5 1.75V3H1.75C0.783502 3 0 3.7835 0 4.75V13.25C0 14.2165 0.783501 15 1.75 15H14.25C15.2165 15 16 14.2165 16 13.25V4.75C16 3.7835 15.2165 3 14.25 3H10.5V1.75C10.5 0.783502 9.7165 0 8.75 0H7.25ZM10.4823 4.5C10.361 5.34807 9.63162 6 8.75 6H7.25C6.36838 6 5.63903 5.34807 5.51772 4.5H1.75C1.61193 4.5 1.5 4.61193 1.5 4.75V13.25C1.5 13.3881 1.61193 13.5 1.75 13.5H14.25C14.3881 13.5 14.5 13.3881 14.5 13.25V4.75C14.5 4.61193 14.3881 4.5 14.25 4.5H10.4823ZM7 1.75C7 1.61193 7.11193 1.5 7.25 1.5H8.75C8.88807 1.5 9 1.61193 9 1.75V4.25C9 4.38807 8.88807 4.5 8.75 4.5H7.25C7.11193 4.5 7 4.38807 7 4.25V1.75Z" fill="black"/>
</svg>

<svg xmlns="http://www.w3.org/2000/svg" width="16" height="16" viewBox="0 0 16 16"><path d="M3 7.5a.5.5 0 01.5-.5h2a.5.5 0 01.5.5v3a.5.5 0 01-.5.5h-2a.5.5 0 01-.5-.5v-3zm10 .25a.75.75 0 01-.75.75h-4.5a.75.75 0 010-1.5h4.5a.75.75 0 01.75.75zM10.25 11a.75.75 0 000-1.5h-2.5a.75.75 0 000 1.5h2.5z"/><path fill-rule="evenodd" d="M7.25 0A1.75 1.75 0 005.5 1.75V3H1.75A1.75 1.75 0 000 4.75v8.5C0 14.216.784 15 1.75 15h12.5A1.75 1.75 0 0016 13.25v-8.5A1.75 1.75 0 0014.25 3H10.5V1.75A1.75 1.75 0 008.75 0h-1.5zm3.232 4.5A1.75 1.75 0 018.75 6h-1.5a1.75 1.75 0 01-1.732-1.5H1.75a.25.25 0 00-.25.25v8.5c0 .138.112.25.25.25h12.5a.25.25 0 00.25-.25v-8.5a.25.25 0 00-.25-.25h-3.768zM7 1.75a.25.25 0 01.25-.25h1.5a.25.25 0 01.25.25v2.5a.25.25 0 01-.25.25h-1.5A.25.25 0 017 4.25v-2.5z"/></svg>
